!!!COM: Mozart, Wolfgang Amadeus
!!!OPR: Quartet in F Major
!!!OTL: Andante un poco Allegretto
!!!OMV: 2
!!!SCT: K 158
!!!SCA: Chronologisch-thematisches Verzeichnis sämtlicher Tonwerke Wolfgang Amade Mozarts (L. von Köchel; 1862, 2/1905, 3/1937, 1947)
!!!YOR: Breitkopf & Härtel Edition
!!!EED: Edmund Correia, Jr.
!!!ENC: Edmund Correia, Jr.
!!!CDT: 1756/1/27/-1791/12/5/
!!!OCY: Österreich
!!!YEC: Copyright (c) 1994, 2000 Center for Computer Assisted Research in the Humanities
!!!YEM: Rights to all derivative editions reserved.
!!!YEM: Refer to licensing agreement for further details.
!!!YEN: United States of America
**kern	**kern	**kern	**kern
*I:Violino 1	*I:Violino 2	*I:Viola	*I:Violoncello
*>[A,A,B,B]	*>[A,A,B,B]	*>[A,A,B]	*>[A,A,B,B]
*>A	*>A	*>A	*>A
*clefG2	*clefG2	*clefC3	*clefF4
*k[]	*k[]	*k[]	*k[]
*a:	*a:	*a:	*a:
*M4/4	*M4/4	*M4/4	*M4/4
! Andante un poco Allegretto	! Andante un poco Allegretto	! Andante un poco Allegretto	! Andante un poco Allegretto
=1-	=1-	=1-	=1-
(8axx	1r	1r	1r
8cc	.	.	.
8ee	.	.	.
8cc)	.	.	.
(8b	.	.	.
8dd	.	.	.
8ff	.	.	.
8dd)	.	.	.
=2	=2	=2	=2
16r	(8Axx	1r	1r
(16cc	.	.	.
16ee)	8c	.	.
16ee'	.	.	.
16r	8e	.	.
(16cc	.	.	.
16ee)	8c)	.	.
16ee'	.	.	.
16r	(8B	.	.
(16g#	.	.	.
16b)	8d	.	.
16b'	.	.	.
16r	8f	.	.
(16g#	.	.	.
16b)	8d)	.	.
16b'	.	.	.
=3	=3	=3	=3
4a	16r	(8Axx	1r
.	(16c	.	.
.	16e)	8c	.
.	16e'	.	.
(8.aa	16r	8e	.
.	(16cc	.	.
.	16ee)	8c)	.
16eek)	16ee'	.	.
(8.dd	16r	(8B	.
.	(16g#	.	.
.	16b)	8d	.
16bk)	16b'	.	.
(16g#	16r	8f	.
16b	(16g#	.	.
16dd	16b)	8d)	.
16ff)	16b'	.	.
=4	=4	=4	=4
(16ff	4a	16r	(8AAxx
16ee)	.	(16c	.
16r	.	16e)	8C
(16ee	.	16e'	.
16cc)	(8.aa	16r	8E
16a'	.	(16c	.
16r	.	16e)	8C)
(16a	16eek)	16e'	.
16g#)	(8.dd	16r	(8BB
16ff'	.	(16G#	.
16r	.	16B)	8D
(16f	16bk)	16B'	.
16d)	(16g#	16r	8F
16d'xx	16b	(16G#	.
16r	16dd	16B)	8D)
(16g#	16ff)	16B'	.
=5	=5	=5	=5
8a)	(16ff	(32c	16r
.	.	32d	.
.	16ee)	32c	(16C
.	.	32B	.
(32cc	16r	8A)	16E)
32b	.	.	.
32cc	(16ee	.	16E'
32dd)	.	.	.
(8ee	16cc)	(32a	16r
.	.	32g#	.
.	16a'	32a	(16A
.	.	32f	.
8aa)	16r	8e)	16c)
.	(16a	.	16c'
8r	16cc)	16r	16r
.	16cc'	(16cc	(16A
16r	16r	16a)	16F)
(16ccc	(16aa	16a'	16F'
16aa)	16cc)	16r	16r
16aa'	16cc'	(16e	(16A
16r	16r	16f#)	16D#)
(16cc	(16a	16f#'	16D#'
=6	=6	=6	=6
1b)	4g#)	4B	(2.E
.	4G#	2e	.
.	2Gn	.	.
.	.	(16fn	4Dn)
.	.	16e	.
.	.	16f	.
.	.	16d)	.
=7	=7	=7	=7
8cc	16G	8e	8C
.	16e'	.	.
8gg'	16g'	8r	8r
.	16e'	.	.
8ee'	16g'	4r	4r
.	16e'	.	.
8cc'	16g'	.	.
.	16e'	.	.
(8.ccc	16g'	16e'	2r
.	16e'	16c'	.
.	16g'	16e'	.
32ddd	16e'	16c'	.
32bb	.	.	.
8ccc)	16g'	16e'	.
.	16e'	16c'	.
8r	16g'	16e'	.
.	16e'	16c'	.
=8	=8	=8	=8
8g 8G	16f 16G	8d 8G	8BB
.	16d'	.	.
8dd'	16f'	8r	8r
.	16d'	.	.
8b'	16f'	4r	4r
.	16d'	.	.
8g'	16f'	.	.
.	16d'	.	.
(8.ff	16g'	16d'	2r
.	16d'	16B'	.
.	16g'	16d'	.
32gg	16d'	16B'	.
32ee	.	.	.
8ff)	16g'	16d'	.
.	16d'	16B'	.
8r	16g'	16d'	.
.	16d'	16B'	.
=9	=9	=9	=9
(8.ee	(8.e	4c	4C
32ff	32f	.	.
32gg)	32g)	.	.
(16ff	(16f	4r	4r
16ee)	16e)	.	.
(16dd	(16d	.	.
16cc)	16c)	.	.
8b'	8B'	4G	8F'
8cc'	8c'	.	8E'
8ff'	8f'	8B'	8D'
8ee'	8e'	8c'	8C'
=10	=10	=10	=10
(8.eet	(8.et	(8.cT	4G
32dd	32d	32B	.
32ee)	32e)	32c)	.
4dd	4d	4B	4GG
8r	(24f	(24d	4G
.	24g	24e	.
.	24f)	24d)	.
8gg	(24d	(24B	.
.	24e	24c	.
.	24d)	24B)	.
8gg	(24f	(24d	4r
.	24g	24e	.
.	24f)	24d)	.
8gg	(24d	(24B	.
.	24e	24c	.
.	24d)	24B)	.
=11	=11	=11	=11
(8.gg	(24g	(24e	4C
.	24a	24f	.
.	24g)	24e)	.
.	(24e	(24c	.
16ccck)	24f	24d	.
.	24e)	24c)	.
4gg	(24g	(24e	4r
.	24a	24f	.
.	24g)	24e)	.
.	(24e	(24c	.
.	24f	24d	.
.	24e)	24c)	.
8r	(24f	(24d	4G
.	24g	24e	.
.	24f)	24d)	.
8gg	(24d	(24B	.
.	24e	24c	.
.	24d)	24B)	.
8gg	(24f	(24d	4r
.	24g	24e	.
.	24f)	24d)	.
8gg	(24d	(24B	.
.	24e	24c	.
.	24d)	24B)	.
=12	=12	=12	=12
(8.gg	(24g	(24e	4C
.	24a	24f	.
.	24g)	24e)	.
.	(24e	(24c	.
16ccck)	24f	24d	.
.	24e)	24c)	.
4gg	(24g	(24e	4r
.	24a	24f	.
.	24g)	24e)	.
.	(24e	(24c	.
.	24f	24d	.
.	24e)	24c)	.
8r	8g'	8e'	8C'xx
(8cc	(8e	(8c	(8c
8dd	8f	8d	8B
8ee)	8g)	8e)	8B-)
=13	=13	=13	=13
(8.ff	(8.f	(8.c	(8.A
16ggk)	16gk)	16ek)	16Gk)
16aa'	16a'	16f'	4F
16aa'	16a'	16f'	.
16aa'	16a'	16f'	.
16aa'	16a'	16f'	.
(16aa	(16a	(16f	8r
16gg)	16g)	16e)	.
(16aa	(16a	(16f	8F
16ff)	16f)	16d)	.
(8ee	(8e	(8c	8G
8dd)	8d)	8B)	8GG
=14	=14	=14	=14
8r	8r	8r	8C
(8cc	(8c	(8e	(8c
8dd	8d	8f	8B
8ee)	8e)	8g)	8B-)
(8.ff	(8.f	(8a	(8.A
.	.	8c)	.
16ggk)	16ek)	.	16Gk)
16aa'	(16d	(16B	(16F
16aa'	16f)	16d)	16D)
16aa'	(16f	(16d	(16D
16aa'	16a)	16f)	16BB)
=15	=15	=15	=15
(16aa	(16a	(16f	8C
16gg)	16g)	16e)	.
(16aa	(16a	(16f	8F
16ff)	16f)	16d)	.
(8ee	(8e	(8c	8G
8dd)	8d)	8B)	8GG
8cc	4c	4c	4C
(8ee	.	.	.
8dd#	4r	4r	4r
8ee)	.	.	.
=16	=16	=16	=16
(4b	8r	1r	2r
.	(8e	.	.
4cc	8d#	.	.
.	8e)	.	.
4dd	(4B	.	8r
.	.	.	(8E
4ee)	4c)	.	8D#
.	.	.	8E)
=17	=17	=17	=17
(4dd	(4B	8r	(4GG#
.	.	(8e	.
4cc)	4A)	8d#	4AA)
.	.	8e)	.
8b'	4G#	4B	4E
(8ee	.	.	.
8dd#	4r	4r	4r
8ee)	.	.	.
=18	=18	=18	=18
8b	(8g#	(8e	4E
32dd	8a	8d#	.
(32cc	.	.	.
32b	.	.	.
32cc)	.	.	.
8b	8g#	8e	4E
32dd	8a	8d#	.
(32cc	.	.	.
32b	.	.	.
32cc)	.	.	.
8b'	8g#)	8e)	8E'
8gg#'	8dd'	8e'	8B'
8bb'	8dd'	8e'	8G#'
8r	8r	8r	8r
=19:!!:	=19:!!:	=19:!!:	=19:!!:
*>B	*>B	*>B	*>B
2r	16a	4r	1r
.	16a	.	.
.	16a	.	.
.	16a	.	.
.	16a	16c#	.
.	16a	16c#	.
.	16a	16c#	.
.	16a	16c#	.
2b-	16a	16d	.
.	16a	16d	.
.	16a	16d	.
.	16a	16d	.
.	16g	16e	.
.	16g	16e	.
.	16g	16e	.
.	16g	16e	.
=20	=20	=20	=20
(4.a	16e	16c#	8r
.	16e	16c#	.
.	16e	16c#	8A'
.	16e	16c#	.
.	16f	16d	8F'
.	16f	16d	.
8dd)	16a	16d	8D'
.	16a	16d	.
[4ee	16b-	16d	8G'
.	16b-	16d	.
.	16b-	16g	8E'
.	16b-	16g	.
(8.ee]	16a	16e	8C#'
.	16a	16e	.
.	16a	16c#	8AA'
32ff	16a	16c#	.
32gg)	.	.	.
=21	=21	=21	=21
4ff	16a	16d	4D
.	16a	16d	.
.	16a	16d	.
.	16a	16d	.
4r	16f	16d	4r
.	16f	16d	.
.	16f	16d	.
.	16f	16d	.
2a	16f	16d	2r
.	16f	16d	.
.	16f	16d	.
.	16f	16d	.
.	16e	16cn	.
.	16e	16c	.
.	16e	16c	.
.	16e	16c	.
=22	=22	=22	=22
(4.g	16d	16B	8r
.	16d	16B	.
.	16d	16B	8G'
.	16d	16B	.
.	16e	16c	8E'
.	16e	16c	.
8cc)	16g	16e	8Cn'
.	16g	16e	.
[4dd	16a	16c	8F'
.	16a	16c	.
.	16a	16f	8D'
.	16a	16f	.
(8.dd]	16g	16d	8BB'
.	16g	16d	.
.	16g	16B	8GG'
32ee	16g	16B	.
32ff)	.	.	.
=23	=23	=23	=23
8ee	4g	4A	4C
(8dd#	.	.	.
8ee	8r	4r	4r
8bn)	(8d#	.	.
(8cc	8e)	8r	8r
8g#	(8dn	(8B	(8E
8a	8c	8A	8F
8b)	8f#)	8F#)	8D#)
=24	=24	=24	=24
4g#	8B'	4G#	4E
.	(8d#	.	.
4r	8e	8r	4r
.	8B	(8D#	.
2r	8c	8E)	8r
.	8G#	(8Dn	(8EE
.	8A	8C	8FF
.	8B)	8F#)	8DD#)
=25	=25	=25	=25
1r	4G#	8E'	8EE'
.	.	(8e	(8E
.	4r	8f	8F
.	.	8c#	8C#
.	2r	8d	8D
.	.	8d#	8D#
.	.	8e	8E
.	.	8G#)	8GG#)
=26	=26	=26	=26
(8a	1r	4A	4AA
8cc	.	.	.
8ee	.	4r	4r
8cc)	.	.	.
(8b	.	2r	2r
8dd	.	.	.
8ff	.	.	.
8dd)	.	.	.
=27	=27	=27	=27
16r	(8A	1r	1r
8cc	.	.	.
.	8c	.	.
8ee	.	.	.
.	8e	.	.
8aa	.	.	.
.	8c)	.	.
16eek	.	.	.
16r	(8B	.	.
8dd	.	.	.
.	8d	.	.
8b	.	.	.
.	8f	.	.
8g#	.	.	.
.	8d)	.	.
16bk	.	.	.
=28	=28	=28	=28
[4a	16r	(8A	1r
.	8c	.	.
.	.	8c	.
.	8e	.	.
(16a]	.	8e	.
16cc	8a	.	.
16ee	.	8c)	.
16aa)	16eek	.	.
(16aa	16r	(8B	.
16gg#)	8dd	.	.
8gg#'	.	8d	.
.	8b	.	.
16r	.	8f	.
(16dd	8g#	.	.
16bb	.	8d)	.
16gg#)	16bk	.	.
=29	=29	=29	=29
(8aa	[4a	16r	(8AA
.	.	8c	.
8ee	.	.	8C
.	.	8e	.
8cc	(16a]	.	8E
.	16cc	8a	.
8a)	16ee	.	8C)
.	16aa)	16ek	.
(8dd	(16aa	16r	(8BB
.	16gg#)	8d	.
8ff)	8gg#'	.	8D
.	.	8B	.
(8d	16r	.	8F
.	(16dd	8G#	.
8f)	16bb	.	8D)
.	16gg#)	16Bk	.
=30	=30	=30	=30
8e'	8aa'	4c	4C
(8aa	(8cc	.	.
8gg#	8b	4r	4r
8aa)	8cc)	.	.
8r	8r	4f#	4D#
(8cc	(8a	.	.
8b	8g#	4r	4r
8cc)	8a)	.	.
=31	=31	=31	=31
1b	(2g#	(4B	(4E
.	.	4d	4F
.	2G#)	4e	4E
.	.	4fn)	4Dn)
=32	=32	=32	=32
8a'	16A	8e	4C
.	16c'	.	.
8ee'	16e'	8r	.
.	16c'	.	.
8cc'	16e'	4r	4r
.	16c'	.	.
8a'	16e'	.	.
.	16c'	.	.
(8.aa	16e'	16c'	2r
.	16c'	16A'	.
.	16e'	16c'	.
32bb	16c'	16A'	.
32gg#	.	.	.
8aa)	16e'	16c'	.
.	16c'	16A'	.
8r	16e'	16c'	.
.	16c'	16A'	.
=33	=33	=33	=33
8ee 8b 8e	16d	8B	4GG#
.	16B'	.	.
8b'	16d'	8r	.
.	16B'	.	.
8g#'	16d'	4r	4r
.	16B'	.	.
8e'	16d'	.	.
.	16B'	.	.
(8.dd	16e'	16B'	2r
.	16B'	16G#'	.
.	16e'	16B'	.
32ee	16B'	16G#'	.
32cc#	.	.	.
8dd)	16e'	16B'	.
.	16B'	16G#'	.
8r	16e'	16B'	.
.	16B'	16G#'	.
=34	=34	=34	=34
(8.ccnxx	(8.c	4A	4AA
32dd	32d	.	.
32ee)	32e)	.	.
(16dd	(16d	4r	4r
16cc)	16c)	.	.
(16b	(16B	.	.
16a)	16A)	.	.
8g#'	8G#'	4E	8D'
8a'	8A'	.	8C'
8dd'	8d'	8G#'	8BB'
8cc'	8c'	8A'	8AA'
=35	=35	=35	=35
(8.ccT	(8.cT	(8.AT	4E
32b	32B	32G#	.
32cc)	32c)	32A)	.
4b	4B	4G#	4EE
8r	(24d	(24b	4E
.	24e	24cc	.
.	24d)	24b)	.
8ee	(24B	(24g#	.
.	24c	24a	.
.	24B)	24g#)	.
8ee	(24d	(24b	4r
.	24e	24cc	.
.	24d)	24b)	.
8ee	(24B	(24g#	.
.	24c	24a	.
.	24B)	24g#)	.
=36	=36	=36	=36
(8.ee	(24e	(24cc	4A
.	24f	24dd	.
.	24e)	24cc)	.
.	(24c	(24a	.
16aak)	24d	24b	.
.	24c)	24a)	.
4ee	(24e	(24cc	4r
.	24f	24dd	.
.	24e)	24cc)	.
.	(24c	(24a	.
.	24d	24b	.
.	24c)	24a)	.
8r	(24d	(24b	4E
.	24e	24cc	.
.	24d)	24b)	.
8ee	(24B	(24g#	.
.	24c	24a	.
.	24B)	24g#)	.
8ee	(24d	(24b	4r
.	24e	24cc	.
.	24d)	24b)	.
8ee	(24B	(24g#	.
.	24c	24a	.
.	24B)	24g#)	.
=37	=37	=37	=37
(8.ee	(24e	(24cc	4AA
.	24f	24dd	.
.	24e)	24cc)	.
.	(24c	(24a	.
16aak)	24d	24b	.
.	24c)	24a)	.
4ee	(24e	(24cc	4r
.	24f	24dd	.
.	24e)	24cc)	.
.	(24c	(24a	.
.	24d	24b	.
.	24c)	24a)	.
8r	8c'	8e'	8AA'xx
(8a	(8c	(8A	(8A
8b	8d	8B	8G#
8cc#)	8e)	8c#)	8Gn)
=38	=38	=38	=38
(8.dd	(8.f	(8.d	(8.F
16eek)	16gk)	16ek)	16Ek)
16ff'	16a'	16f'	4D
16ff'	16f'	16d'	.
16ff'	16f'	16d'	.
16ff'	16f'	16d'	.
(16ff	(16f	(16d	8r
16ee	16e	16cn	.
16ff	16f	16d	8D
16dd)	16d)	16B)	.
(8ccn	(8c	(8A	8E
8b)	8B)	8G#)	8EE
=39	=39	=39	=39
8r	8r	8A'	8AA'
(8a	(8A	(8c	(8A
8b	8B	8d	8G#
8cc#)	8c#)	8e)	8Gn)
(8.dd	(8.d	(8.f	(8.F
16eek)	16ek)	16gk)	16Ek)
16ff'	16f'	(16a	(8D
16ff'	16f'	16f)	.
16ff'	16f'	(16d	16BB
16ff'	16f'	16B)	16GG#)
=40	=40	=40	=40
(16ff	(16f	(8c	8AA
16ee	16e	.	.
16ff	16f	16d	8D
16dd)	16d)	16B)	.
(8ccn	(8cn	(8Axx	8E
8b)	8B)	8G#)xx	8EE
8a	4A	4A	4AA
(8a	.	.	.
8g#	4r	4r	4r
8a)	.	.	.
=41	=41	=41	=41
(4e	8r	1r	2r
.	(8a	.	.
4f	8g#	.	.
.	8a)	.	.
4gn	(4e	.	8r
.	.	.	(8A
4a)	4f)	.	8G#
.	.	.	8A)
=42	=42	=42	=42
(4g	(4c#	8r	(4E
.	.	(8A	.
4f)	4d)	8G#	4F)
.	.	8A)	.
8e'xx	4cn'	4E'xx	4AA'
(8ee	.	.	.
8dd#	4r	4r	4r
8ee)	.	.	.
=43	=43	=43	=43
(4.a	8r	8r	(4D#
.	(8f#	(4c	.
.	8e	.	4E)
! 16ccP/	!	!	!
8b	8d)	8G#)	.
8a'	4c'xx	4A'xx	4AA'xx
(8ee	.	.	.
8dd#	4r	4r	4r
8ee)	.	.	.
=44	=44	=44	=44
(4.a	8r	8r	(4DD#
.	(4c	(8F#	.
.	.	8E	4EE)
! 16ccP/	!	!	!
8b	8G#)	8D)	.
8a'	8a 8A'xx	8C'xx	8AA'
8ee'	8a'	8c'	8A'
8aa'	8cc'	8e'	8AA'
8r	8r	8r	8r
==:|!	==:|!	==|!	==:|!
*-	*-	*-	*-
!!!RWG: Appoggiaturas of spine 'Violino 1' need manual editing in measures: 43, 44
!!!RWG: Key is interpreted using the Humdrum key tool.
!!!AFT: stage2
!!!END: 1994/03/28
!!format changes:
!!content changes:
!!public access: complete
!!!KEY: 1933660984
!!!EMD: Converted from MuseData to Humdrum Dec 16, 2000, by Andreas Kornstaedt using muse2kern.
